icons/misc/location.svg

<?xml version="1.0" encoding="UTF-8"?><svg id="Ebene_2" xmlns="http://www.w3.org/2000/svg" viewBox="0 0 16 20"><defs><style>.cls-1{fill:#5381a9;}</style></defs><g id="Ebene_1-2"><g id="Ebene_2-2"><g id="Ebene_2-2"><path class="cls-1" d="M14,0H2C.895,0,0,.895,0,2V18c0,1.105,.895,2,2,2H14c1.105,0,2-.895,2-2V2c0-1.105-.895-2-2-2Zm-6,14.45c-3.004,0-5.44-2.436-5.44-5.44S4.996,3.57,8,3.57c3.001,0,5.434,2.429,5.44,5.43,0,3.006-2.434,5.444-5.44,5.45Zm-3.47-5.73h2.26v3.94h2.42v-3.94h2.26l-3.47-3.46-3.47,3.46Z"/></g></g></g></svg>

<svg xmlns="http://www.w3.org/2000/svg" viewBox="0 0 16 20"><path d="M14 0H2a2 2 0 0 0-2 2v16a2 2 0 0 0 2 2h12a2 2 0 0 0 2-2V2a2 2 0 0 0-2-2ZM8 14.45A5.44 5.44 0 1 1 13.44 9 5.45 5.45 0 0 1 8 14.45ZM4.53 8.72h2.26v3.94h2.42V8.72h2.26L8 5.26 4.53 8.72Z" style="fill:#5381a9"/></svg>
